projects/strimzi/icon/black/strimzi-icon-black.svg

<svg id="Layer_1" data-name="Layer 1" xmlns="http://www.w3.org/2000/svg" viewBox="0 0 360 319.81332"><title>strimzi-icon-black</title><path d="M180.33826,4.32553,45.59882,82.11691V237.70236L180.33826,315.493l134.74017-77.79132V82.11691ZM300.01135,229.00424,180.33759,298.09781,60.66382,229.00424v-66.835C112.932,138.619,178.36755,122.742,183.91571,115.6293l-.00006-.00006C191.7132,105.6326,113.73737,89.235,113.73737,89.235s191.04174,11.21418,146.855,48.49421c-44.18579,37.27911-141.65576,58.07336-36.38922,67.17a725.85543,725.85543,0,0,1,75.80816,10.22217Z"/></svg>

<svg xmlns="http://www.w3.org/2000/svg" role="img" viewBox="39.28 -1.97 281.94 323.44"><path d="M180.338 4.326l-134.74 77.79v155.586l134.74 77.791 134.74-77.791V82.117zm119.673 224.678l-119.673 69.094-119.674-69.094V162.17c52.268-23.55 117.704-39.427 123.252-46.54 7.797-9.996-70.179-26.394-70.179-26.394s191.042 11.214 146.855 48.494c-44.185 37.28-141.655 58.074-36.389 67.17a725.855 725.855 0 0175.808 10.222z"/></svg>
